src/assets/bg_btn.svg

<svg width="385" height="88" viewBox="0 0 385 88" fill="none" xmlns="http://www.w3.org/2000/svg">
<path d="M1.9493 7.62547C2.31315 4.89558 4.55455 2.86624 7.30477 2.72138C21.4301 1.97733 70.4127 0 192.064 0C313.867 0 362.82 1.98228 376.876 2.72416C379.601 2.86799 381.83 4.86826 382.204 7.57131C383.254 15.1527 384.954 31.0764 383.503 47C382.072 62.6977 378.601 75.3406 376.729 81.296C376.016 83.5649 373.965 85.0818 371.59 85.19C357.116 85.8496 301.532 88 192.064 88C82.9353 88 27.3571 85.8629 12.674 85.1962C10.2359 85.0855 8.12998 83.4894 7.43369 81.1502C5.5707 74.8915 2.06455 61.719 0.625251 47C-0.837629 32.0398 0.902163 15.482 1.9493 7.62547Z" fill="url(#paint0_linear_2001_8846)"/>
<path d="M2.54674 7.96992C2.73858 5.08485 5.0213 2.85695 7.90881 2.70624C22.3809 1.95089 71.4352 0 192.064 0C312.818 0 361.849 1.95494 376.264 2.70858C379.13 2.85843 381.402 5.0507 381.598 7.91414C382.05 14.5008 382.53 27.1043 381.175 42C379.771 57.4299 376.891 70.4002 375.296 76.7711C374.661 79.3052 372.425 81.0382 369.813 81.0919C350.712 81.4842 271.767 83 192.064 83C112.493 83 33.678 81.4893 14.4102 81.0938C11.7494 81.0392 9.48793 79.2434 8.87131 76.6545C7.28465 69.9929 4.36849 56.4965 2.95337 42C1.58115 27.9429 2.09082 14.8262 2.54674 7.96992Z" fill="url(#paint1_linear_2001_8846)"/>
<g style="mix-blend-mode:screen">
<path d="M192.064 76C215.946 76 346.885 74.0951 364.064 74C364.064 74 313.564 78 192.064 78C70.564 78 20.064 74 20.064 74C37.2427 74.0951 168.182 76 192.064 76Z" fill="url(#paint2_linear_2001_8846)"/>
</g>
<g style="mix-blend-mode:screen">
<path d="M4.06354 9.27395C4.44498 6.70636 6.5781 4.87535 9.17005 4.73456C22.675 4.00099 70.6416 2 192.064 2C313.591 2 361.536 4.00445 374.993 4.73646C377.569 4.87659 379.69 6.68955 380.074 9.2408C380.992 15.3419 382.054 27.4749 379.284 42C380.917 24.8726 377.223 13.7319 375.804 10.2054C375.48 9.39974 374.881 8.8411 374.026 8.69363C368.595 7.75781 340.037 5 192.064 5C44.535 5 15.7058 7.74128 10.1519 8.68515C9.26357 8.83613 8.64586 9.41998 8.31871 10.2596C6.89693 13.9084 3.21261 25.2996 4.84384 42C2.06414 27.7708 3.14326 15.4687 4.06354 9.27395Z" fill="url(#paint3_linear_2001_8846)"/>
</g>
<path d="M9.45194 14.6471C9.6702 11.9036 11.8461 9.85191 14.5938 9.69541C27.9898 8.93243 73.6106 7 192.064 7C310.806 7 356.36 8.94187 369.632 9.70097C372.332 9.85543 374.479 11.8521 374.699 14.548C375.111 19.6078 375.429 28.8405 374.175 42C372.829 56.1178 370.127 65.7161 368.501 70.4909C367.759 72.6685 365.711 74.0347 363.411 74.0857C346.184 74.4682 272.189 76 192.064 76C112.213 76 38.451 74.4787 20.8963 74.0897C18.4962 74.0365 16.391 72.5563 15.6604 70.2695C14.0376 65.1901 11.3079 55.1984 9.95339 42C8.67613 29.5542 9.02928 19.96 9.45194 14.6471Z" fill="url(#paint4_linear_2001_8846)"/>
<mask id="mask0_2001_8846" style="mask-type:alpha" maskUnits="userSpaceOnUse" x="9" y="7" width="366" height="69">
<path d="M9.46849 14.6809C9.68456 11.923 11.8572 9.84392 14.6188 9.68274C27.8368 8.91127 72.6251 7 191.953 7C311.206 7 356.013 8.90887 369.262 9.68128C372.035 9.84295 374.215 11.9392 374.43 14.7088C374.862 20.2811 375.253 30.2948 373.953 42C372.588 54.2803 369.828 64.6988 368.211 70.08C367.496 72.4581 365.345 74.0382 362.863 74.0931C345.046 74.4875 271.524 76 191.953 76C112.31 76 38.7285 74.4848 20.9953 74.0921C18.5384 74.0376 16.4017 72.4893 15.6816 70.1397C14.063 64.8588 11.3136 54.5866 9.95285 42C8.65949 30.0364 9.03892 20.1637 9.46849 14.6809Z" fill="url(#paint5_linear_2001_8846)"/>
</mask>
<g mask="url(#mask0_2001_8846)">
<g filter="url(#filter0_f_2001_8846)">
<ellipse cx="193.953" cy="81.5" rx="180" ry="23.5" fill="#01A406"/>
</g>
</g>
<g style="mix-blend-mode:screen" opacity="0.66">
<path d="M13.5168 16.8537C13.7119 15.1374 15.1097 13.9067 16.8337 13.7989C27.5873 13.1268 71.1652 11 192.064 11C312.422 11 356.149 13.1078 367.148 13.7898C368.948 13.9014 370.385 15.232 370.573 17.0254C371.031 21.4007 371.555 30.2727 370.174 42C368.706 54.474 365.621 64.2559 364.083 68.5803C363.554 70.067 362.203 71.0242 360.625 71.0613C346.36 71.3973 274.023 73 192.064 73C109.649 73 36.9637 71.3795 23.2699 71.0558C21.8216 71.0216 20.5495 70.2055 20.0015 68.8644C18.4491 65.0657 15.4081 56.1749 13.9534 42C12.6111 28.9205 13.0695 20.7898 13.5168 16.8537Z" fill="url(#paint6_linear_2001_8846)"/>
</g>
<g style="mix-blend-mode:screen" opacity="0.47" filter="url(#filter1_f_2001_8846)">
<ellipse cx="192.064" cy="18.5" rx="179" ry="6.5" fill="#77FF7B"/>
</g>
<defs>
<filter id="filter0_f_2001_8846" x="6.45264" y="50.5" width="375" height="62" filterUnits="userSpaceOnUse" color-interpolation-filters="sRGB">
<feFlood flood-opacity="0" result="BackgroundImageFix"/>
<feBlend mode="normal" in="SourceGraphic" in2="BackgroundImageFix" result="shape"/>
<feGaussianBlur stdDeviation="3.75" result="effect1_foregroundBlur_2001_8846"/>
</filter>
<filter id="filter1_f_2001_8846" x="5.56396" y="4.5" width="373" height="28" filterUnits="userSpaceOnUse" color-interpolation-filters="sRGB">
<feFlood flood-opacity="0" result="BackgroundImageFix"/>
<feBlend mode="normal" in="SourceGraphic" in2="BackgroundImageFix" result="shape"/>
<feGaussianBlur stdDeviation="3.75" result="effect1_foregroundBlur_2001_8846"/>
</filter>
<linearGradient id="paint0_linear_2001_8846" x1="192.064" y1="0" x2="192.064" y2="83" gradientUnits="userSpaceOnUse">
<stop stop-color="#FDC00F"/>
<stop offset="1" stop-color="#955C1A"/>
</linearGradient>
<linearGradient id="paint1_linear_2001_8846" x1="192.064" y1="0" x2="192.064" y2="83" gradientUnits="userSpaceOnUse">
<stop stop-color="#FDC00F"/>
<stop offset="1" stop-color="#E9BA02"/>
</linearGradient>
<linearGradient id="paint2_linear_2001_8846" x1="192.064" y1="-3.79756e-05" x2="192.064" y2="82.9999" gradientUnits="userSpaceOnUse">
<stop stop-color="#FDC00F"/>
<stop offset="1" stop-color="#E9BA02"/>
</linearGradient>
<linearGradient id="paint3_linear_2001_8846" x1="192.064" y1="2.47359e-07" x2="192.064" y2="83" gradientUnits="userSpaceOnUse">
<stop stop-color="#FFD866"/>
<stop offset="1" stop-color="#FFD73B"/>
</linearGradient>
<linearGradient id="paint4_linear_2001_8846" x1="192.064" y1="5" x2="192.064" y2="78" gradientUnits="userSpaceOnUse">
<stop stop-color="#004A02"/>
<stop offset="1" stop-color="#008C05"/>
</linearGradient>
<linearGradient id="paint5_linear_2001_8846" x1="191.953" y1="5" x2="191.953" y2="78" gradientUnits="userSpaceOnUse">
<stop stop-color="#006403"/>
<stop offset="1" stop-color="#009A05"/>
</linearGradient>
<linearGradient id="paint6_linear_2001_8846" x1="192.064" y1="5" x2="192.064" y2="78" gradientUnits="userSpaceOnUse">
<stop stop-color="#009A05"/>
<stop offset="0.485" stop-color="#006403" stop-opacity="0"/>
</linearGradient>
</defs>
</svg>

<svg width="385" height="88" fill="none" xmlns="http://www.w3.org/2000/svg"><path d="M1.95 7.625c.363-2.73 2.605-4.759 5.355-4.904C21.43 1.977 70.413 0 192.064 0 313.867 0 362.82 1.982 376.876 2.724c2.725.144 4.954 2.144 5.328 4.847 1.05 7.582 2.75 23.505 1.299 39.429-1.431 15.698-4.902 28.34-6.774 34.296-.713 2.269-2.764 3.786-5.139 3.894-14.474.66-70.058 2.81-179.526 2.81-109.129 0-164.707-2.137-179.39-2.804-2.438-.11-4.544-1.707-5.24-4.046C5.57 74.891 2.064 61.72.625 47-.838 32.04.902 15.482 1.95 7.625z" fill="url(#a)"/><path d="M2.547 7.97c.192-2.885 2.474-5.113 5.362-5.264C22.38 1.951 71.435 0 192.064 0c120.754 0 169.785 1.955 184.2 2.709 2.866.15 5.138 2.342 5.334 5.205.452 6.587.932 19.19-.423 34.086-1.404 15.43-4.284 28.4-5.879 34.771-.635 2.534-2.871 4.267-5.483 4.32C350.712 81.485 271.767 83 192.064 83c-79.571 0-158.386-1.51-177.654-1.906-2.66-.055-4.922-1.85-5.539-4.44C7.285 69.993 4.368 56.498 2.953 42c-1.372-14.057-.862-27.174-.406-34.03z" fill="url(#b)"/><path d="M192.064 76c23.882 0 154.821-1.905 172-2 0 0-50.5 4-172 4s-172-4-172-4c17.179.095 148.118 2 172 2z" fill="url(#c)" style="mix-blend-mode:screen"/><path d="M4.064 9.274c.381-2.568 2.514-4.399 5.106-4.54C22.675 4.002 70.642 2 192.064 2c121.527 0 169.472 2.004 182.929 2.736 2.576.14 4.697 1.954 5.081 4.505.918 6.1 1.98 18.234-.79 32.759 1.633-17.127-2.061-28.268-3.48-31.795-.324-.805-.923-1.364-1.778-1.511C368.595 7.758 340.037 5 192.064 5 44.535 5 15.706 7.741 10.152 8.685c-.888.151-1.506.735-1.833 1.575C6.897 13.908 3.213 25.3 4.844 42c-2.78-14.23-1.7-26.531-.78-32.726z" fill="url(#d)" style="mix-blend-mode:screen"/><path d="M9.452 14.647c.218-2.743 2.394-4.795 5.142-4.952C27.99 8.932 73.61 7 192.064 7 310.806 7 356.36 8.942 369.632 9.701c2.7.154 4.847 2.151 5.067 4.847.412 5.06.73 14.292-.524 27.452-1.346 14.118-4.048 23.716-5.674 28.49-.742 2.178-2.79 3.545-5.09 3.596C346.184 74.468 272.189 76 192.064 76c-79.851 0-153.613-1.521-171.168-1.91-2.4-.053-4.505-1.534-5.236-3.82-1.622-5.08-4.352-15.072-5.707-28.27-1.277-12.446-.924-22.04-.501-27.353z" fill="url(#e)"/><mask id="g" style="mask-type:alpha" maskUnits="userSpaceOnUse" x="9" y="7" width="366" height="69"><path d="M9.468 14.68c.217-2.757 2.39-4.836 5.15-4.997C27.838 8.91 72.626 7 191.954 7c119.253 0 164.06 1.909 177.309 2.681 2.773.162 4.953 2.258 5.168 5.028.432 5.572.823 15.586-.477 27.291-1.365 12.28-4.125 22.699-5.742 28.08-.715 2.378-2.866 3.958-5.348 4.013-17.817.394-91.339 1.907-170.91 1.907-79.643 0-153.225-1.515-170.958-1.908-2.457-.054-4.593-1.603-5.313-3.952-1.619-5.281-4.368-15.553-5.73-28.14-1.293-11.964-.913-21.836-.484-27.32z" fill="url(#f)"/></mask><g filter="url(#h)" mask="url(#g)"><ellipse cx="193.953" cy="81.5" rx="180" ry="23.5" fill="#01A406"/></g><path d="M13.517 16.854c.195-1.717 1.593-2.947 3.317-3.055C27.587 13.127 71.165 11 192.064 11c120.358 0 164.085 2.108 175.084 2.79 1.8.111 3.237 1.442 3.425 3.235.458 4.376.982 13.248-.399 24.975-1.468 12.474-4.553 22.256-6.091 26.58-.529 1.487-1.88 2.444-3.458 2.481C346.36 71.397 274.023 73 192.064 73c-82.415 0-155.1-1.62-168.794-1.944-1.448-.034-2.72-.85-3.268-2.192-1.553-3.798-4.594-12.69-6.049-26.864-1.342-13.08-.883-21.21-.436-25.146z" fill="url(#i)" style="mix-blend-mode:screen" opacity=".66"/><g style="mix-blend-mode:screen" opacity=".47" filter="url(#j)"><ellipse cx="192.064" cy="18.5" rx="179" ry="6.5" fill="#77FF7B"/></g><defs><linearGradient id="a" x1="192.064" y1="0" x2="192.064" y2="83" gradientUnits="userSpaceOnUse"><stop stop-color="#FDC00F"/><stop offset="1" stop-color="#955C1A"/></linearGradient><linearGradient id="b" x1="192.064" y1="0" x2="192.064" y2="83" gradientUnits="userSpaceOnUse"><stop stop-color="#FDC00F"/><stop offset="1" stop-color="#E9BA02"/></linearGradient><linearGradient id="c" x1="192.064" y1="0" x2="192.064" y2="83" gradientUnits="userSpaceOnUse"><stop stop-color="#FDC00F"/><stop offset="1" stop-color="#E9BA02"/></linearGradient><linearGradient id="d" x1="192.064" y1="0" x2="192.064" y2="83" gradientUnits="userSpaceOnUse"><stop stop-color="#FFD866"/><stop offset="1" stop-color="#FFD73B"/></linearGradient><linearGradient id="e" x1="192.064" y1="5" x2="192.064" y2="78" gradientUnits="userSpaceOnUse"><stop stop-color="#004A02"/><stop offset="1" stop-color="#008C05"/></linearGradient><linearGradient id="f" x1="191.953" y1="5" x2="191.953" y2="78" gradientUnits="userSpaceOnUse"><stop stop-color="#006403"/><stop offset="1" stop-color="#009A05"/></linearGradient><linearGradient id="i" x1="192.064" y1="5" x2="192.064" y2="78" gradientUnits="userSpaceOnUse"><stop stop-color="#009A05"/><stop offset=".485" stop-color="#006403" stop-opacity="0"/></linearGradient><filter id="h" x="6.453" y="50.5" width="375" height="62" filterUnits="userSpaceOnUse" color-interpolation-filters="sRGB"><feFlood flood-opacity="0" result="BackgroundImageFix"/><feBlend in="SourceGraphic" in2="BackgroundImageFix" result="shape"/><feGaussianBlur stdDeviation="3.75" result="effect1_foregroundBlur_2001_8846"/></filter><filter id="j" x="5.564" y="4.5" width="373" height="28" filterUnits="userSpaceOnUse" color-interpolation-filters="sRGB"><feFlood flood-opacity="0" result="BackgroundImageFix"/><feBlend in="SourceGraphic" in2="BackgroundImageFix" result="shape"/><feGaussianBlur stdDeviation="3.75" result="effect1_foregroundBlur_2001_8846"/></filter></defs></svg>
